build/img/svg/footer-twitter-icon.svg

<svg width="15" height="15" viewBox="0 0 15 15" fill="none" xmlns="http://www.w3.org/2000/svg">
<path d="M9.7 0.155143C11.2 -0.344857 12.3 0.455143 12.9 1.25514C13.4 1.05514 14 0.855143 14.6 0.655143C14.6 1.45514 14.1 2.05514 13.8 2.25514C14.5 2.45514 15 1.85514 15 1.85514C14.9 2.75514 14.1 3.55514 13.6 3.75514C13.4 10.0551 10.8 14.1551 4.7 14.0551C4.2 14.0551 4.8 14.0551 4.3 14.0551C4 14.0551 0.6 13.6551 0 12.2551C2 12.4551 3.4 11.8551 4.1 11.1551C3.3 10.8551 1.7 10.7551 1.5 8.35514C1.8 8.55514 2 8.65514 2.6 8.55514C1.5 7.75514 0.3 7.05514 0.4 5.05514C0.7 5.35514 1.3 5.55514 1.6 5.45514C1 5.25514 -0.2 2.35514 0.8 0.855143C2.4 2.55514 4.1 4.25514 7.1 4.35514C7.3 2.25514 8.1 0.855143 9.7 0.155143Z" fill="#444444"/>
</svg>

<svg width="15" height="15" fill="none" xmlns="http://www.w3.org/2000/svg"><path d="M9.7.155c1.5-.5 2.6.3 3.2 1.1.5-.2 1.1-.4 1.7-.6 0 .8-.5 1.4-.8 1.6.7.2 1.2-.4 1.2-.4-.1.9-.9 1.7-1.4 1.9-.2 6.3-2.8 10.4-8.9 10.3h-.4c-.3 0-3.7-.4-4.3-1.8 2 .2 3.4-.4 4.1-1.1-.8-.3-2.4-.4-2.6-2.8.3.2.5.3 1.1.2-1.1-.8-2.3-1.5-2.2-3.5.3.3.9.5 1.2.4-.6-.2-1.8-3.1-.8-4.6 1.6 1.7 3.3 3.4 6.3 3.5.2-2.1 1-3.5 2.6-4.2Z" fill="#444"/></svg>
